X:30
T:Deirdre's Fancy
R:slip jig
Z:id:hn-slipjig-30
M:9/8
K:Edor
E2F G2A BGE|D2E F2G AFD|E2F G2A BGE|1 B=cB AGF E2D:|2 B=cB AGF E2z||
|:eBe e2f gfe|dAd d2e fed|eBe e2f gfe|1 d^cB AGF E2z:|2 d^cB AGF E2D||
<end>
<start>
